ashes/src/images/icons/channels.svg

<?xml version="1.0" encoding="UTF-8" standalone="no"?>
<svg width="18px" height="18px" viewBox="0 0 18 18" version="1.1" xmlns="http://www.w3.org/2000/svg" xmlns:xlink="http://www.w3.org/1999/xlink">
    <!-- Generator: Sketch 42 (36781) - http://www.bohemiancoding.com/sketch -->
    <title>Icon_Channels</title>
    <desc>Created with Sketch.</desc>
    <defs></defs>
    <g id="Page-1" stroke="none" stroke-width="1" fill="none" fill-rule="evenodd">
        <g id="Artboard-Copy" transform="translate(-197.000000, -412.000000)" fill-rule="nonzero" fill="#FFFFFF">
            <g id="Icon_Channels" transform="translate(197.000000, 412.000000)">
                <g id="Capa_1">
                    <path d="M17.2815294,5.4965 C16.3325294,3.284 14.7198824,1.67491176 12.4889118,0.723411765 C11.3738529,0.247852941 10.2155294,0.00494117647 8.99505882,0.00494117647 C7.77482353,0.00494117647 6.61523529,0.245558824 5.50141176,0.723411765 C3.28894118,1.67238235 1.65926471,3.28044118 0.708588235,5.4965 C0.232205882,6.60673529 0,7.76988235 0,8.99011765 C0,10.2105882 0.232205882,11.3833824 0.708588235,12.4938529 C1.65926471,14.7099118 3.28891176,16.3276176 5.50141176,17.2768235 C6.61523529,17.7546765 7.77479412,17.9950588 8.99505882,17.9950588 C10.2155294,17.9950588 11.3738529,17.7521471 12.4889118,17.2768235 C14.7199118,16.3252941 16.3325588,14.7061471 17.2815294,12.4938529 C17.7593824,11.3798235 18,10.2105882 18,8.99011765 C18,7.76988235 17.7593824,6.6105 17.2815294,5.4965 Z M6.00320588,1.67805882 C5.22573529,2.66211765 4.65508824,3.91197059 4.29082353,5.42761765 L1.93873529,5.42761765 C2.80476471,3.74464706 4.26144118,2.39632353 6.00320588,1.67805882 Z M1.09238235,8.99011765 C1.09238235,8.13394118 1.23011765,7.30735294 1.49591176,6.51014706 L4.07435294,6.51014706 C3.94647059,7.34658824 3.88729412,8.17341176 3.88729412,8.99011765 C3.88729412,9.79717647 3.9465,10.6141471 4.07435294,11.4505882 L1.47617647,11.4505882 C1.22026471,10.6533824 1.09238235,9.82679412 1.09238235,8.99011765 Z M1.93873529,12.5331176 L4.29085294,12.5331176 C4.65511765,14.0781471 5.22579412,15.3477353 6.00323529,16.3221471 C4.23182353,15.5839412 2.77517647,14.2356471 1.93873529,12.5331176 Z M8.44394118,16.8140882 C7.80420588,16.6272059 7.20394118,16.1548235 6.66270588,15.3872353 C6.12144118,14.6194412 5.70805882,13.6649706 5.42270588,12.5331176 L8.44394118,12.5331176 L8.44394118,16.8140882 Z M8.44394118,11.4505882 L5.17661765,11.4505882 C5.04855882,10.5746471 4.97967647,9.75770588 4.97967647,8.99011765 C4.97967647,8.16352941 5.04852941,7.33673529 5.19635294,6.51014706 L8.44391176,6.51014706 L8.44391176,11.4505882 L8.44394118,11.4505882 Z M8.44394118,5.42764706 L5.42270588,5.42764706 C5.72776471,4.30564706 6.14347059,3.36252941 6.68244118,2.60311765 C7.226,1.837 7.80423529,1.36311765 8.44397059,1.18591176 L8.44397059,5.42764706 L8.44394118,5.42764706 Z M16.0612941,5.42764706 L13.7091471,5.42764706 C13.3450882,3.91197059 12.7742353,2.66211765 11.9967647,1.67808824 C13.7387647,2.39632353 15.1952353,3.74464706 16.0612941,5.42764706 Z M9.55605882,1.18591176 C10.1957941,1.36311765 10.774,1.837 11.3175882,2.60311765 C11.8567353,3.36252941 12.2722353,4.30564706 12.5772941,5.42764706 L9.55605882,5.42764706 L9.55605882,1.18591176 Z M9.55605882,6.51014706 L12.8036176,6.51014706 C12.9514118,7.33673529 13.0202941,8.16352941 13.0202941,8.99011765 C13.0202941,9.75773529 12.9514118,10.5746471 12.8233529,11.4505882 L9.55605882,11.4505882 L9.55605882,6.51014706 Z M9.55605882,16.8140882 L9.55605882,12.5331176 L12.5772941,12.5331176 C12.2821176,13.6649706 11.8632647,14.6156471 11.3274412,15.3872353 C10.7903824,16.1607059 10.2056471,16.6370882 9.55605882,16.8140882 Z M11.9967941,16.3221471 C12.7742647,15.3477353 13.3451176,14.0781471 13.7091765,12.5331176 L16.0613235,12.5331176 C15.2248529,14.2356471 13.7681471,15.5839412 11.9967941,16.3221471 Z M16.5238235,11.4505882 L13.9256471,11.4505882 C14.0537059,10.6141176 14.1127059,9.79717647 14.1127059,8.99011765 C14.1127059,8.17341176 14.0537059,7.34661765 13.9256471,6.51014706 L16.5040882,6.51014706 C16.7698824,7.30732353 16.9076176,8.13391176 16.9076176,8.99011765 C16.9075882,9.82679412 16.7797647,10.6533824 16.5238235,11.4505882 Z" id="Shape"></path>
                </g>
            </g>
        </g>
    </g>
</svg>

<svg width="18" height="18" viewBox="0 0 18 18" xmlns="http://www.w3.org/2000/svg">
  <path d="M17.282 5.497c-.95-2.213-2.562-3.822-4.793-4.774-1.12-.475-2.28-.718-3.5-.718-1.22 0-2.38.24-3.5.718C3.28 1.673 1.65 3.28.7 5.497.23 6.607 0 7.77 0 8.99c0 1.22.232 2.393.71 3.504.95 2.216 2.58 3.834 4.79 4.783 1.115.478 2.275.718 3.495.718 1.22 0 2.38-.243 3.494-.718 2.23-.952 3.84-2.57 4.79-4.783.48-1.114.72-2.284.72-3.504 0-1.22-.24-2.38-.72-3.494zm-11.28-3.82c-.776.985-1.347 2.235-1.71 3.75H1.938c.865-1.682 2.32-3.03 4.063-3.75zM1.092 8.99c0-.856.14-1.683.405-2.48h2.578c-.128.837-.187 1.663-.187 2.48 0 .807.06 1.624.187 2.46h-2.6c-.255-.797-.383-1.623-.383-2.46zm.848 3.543h2.35c.365 1.545.936 2.815 1.713 3.79-1.77-.74-3.228-2.087-4.064-3.79zm6.504 4.28c-.64-.186-1.24-.658-1.78-1.426-.543-.768-.956-1.722-1.24-2.854h3.02v4.28zm0-5.362H5.177c-.128-.87-.197-1.69-.197-2.46 0-.82.07-1.65.216-2.48h3.248v4.94zm0-6.02h-3.02c.304-1.12.72-2.06 1.258-2.82.544-.76 1.122-1.24 1.762-1.41v4.24zm7.617 0h-2.35c-.36-1.51-.93-2.76-1.71-3.75 1.74.72 3.2 2.07 4.07 3.75zm-6.5-4.24c.64.18 1.22.65 1.77 1.42.54.76.96 1.71 1.26 2.83H9.56V1.19zm0 5.33h3.25c.15.83.22 1.66.22 2.48 0 .77-.07 1.59-.19 2.46H9.56V6.51zm0 10.31v-4.28h3.02c-.29 1.13-.71 2.08-1.25 2.856-.53.774-1.12 1.25-1.77 1.427zm2.44-.5c.78-.97 1.35-2.24 1.72-3.79h2.35c-.83 1.71-2.29 3.058-4.06 3.79zm4.53-4.87h-2.6c.13-.832.19-1.65.19-2.46 0-.813-.06-1.64-.18-2.48h2.58c.268.8.406 1.628.406 2.48 0 .84-.13 1.667-.385 2.46z" fill="#FFF"/>
</svg>
